X: 38849
T: Sunday Afternoon
R: jig
M: 6/8
K: Gmajor
|:BGG dGG|eGG gfg|e2d BGG|edB BAG|
BGG dGG|eGG gfg|e2d BGG|1 AGF G2d:|2 AGF G2B||
|:d2B def|e2f gfe|fed edB|g2g edB|
d2B def|e2f gfe|fed edB|dBA BAG:|

